localPackages/DesignSystem/Sources/DesignSystem/Resources/Assets.xcassets/IconSet/ic-arrows-swap-right.imageset/ic-arrows-swap-right.svg

<svg width="24" height="24" viewBox="0 0 24 24" fill="none" xmlns="http://www.w3.org/2000/svg">
<g id="ic-arrows-swap-right">
<path id="Icon" fill-rule="evenodd" clip-rule="evenodd" d="M19.2803 1.71967C18.9874 1.42678 18.5126 1.42678 18.2197 1.71967C17.9268 2.01256 17.9268 2.48744 18.2197 2.78033L19.9393 4.5H17.4325C16.1261 4.5 14.9139 5.17986 14.2327 6.29456L11.625 10.5617L9.0173 6.29456C8.33609 5.17986 7.12387 4.5 5.8175 4.5H2.25C1.83579 4.5 1.5 4.83579 1.5 5.25C1.5 5.66421 1.83579 6 2.25 6H5.8175C6.60132 6 7.32865 6.40791 7.73738 7.07674L10.9773 12.3785C10.9825 12.3873 10.9878 12.3961 10.9934 12.4047L14.2327 17.7054C14.9139 18.8201 16.1261 19.5 17.4325 19.5H19.9393L18.2197 21.2197C17.9268 21.5126 17.9268 21.9874 18.2197 22.2803C18.5126 22.5732 18.9874 22.5732 19.2803 22.2803L22.2803 19.2803C22.5732 18.9874 22.5732 18.5126 22.2803 18.2197L19.2803 15.2197C18.9874 14.9268 18.5126 14.9268 18.2197 15.2197C17.9268 15.5126 17.9268 15.9874 18.2197 16.2803L19.9393 18H17.4325C16.6487 18 15.9213 17.5921 15.5126 16.9233L12.504 12L15.5126 7.07674C15.9213 6.40791 16.6487 6 17.4325 6H19.9393L18.2197 7.71967C17.9268 8.01256 17.9268 8.48744 18.2197 8.78033C18.5126 9.07322 18.9874 9.07322 19.2803 8.78033L22.2803 5.78033C22.5732 5.48744 22.5732 5.01256 22.2803 4.71967L19.2803 1.71967ZM9.18035 14.562C9.39634 14.2086 9.85796 14.0972 10.2114 14.3132C10.5648 14.5292 10.6763 14.9908 10.4603 15.3442L10.2025 15.7661L9.0173 17.7054C8.33609 18.8201 7.12387 19.5 5.8175 19.5H2.25C1.83579 19.5 1.5 19.1642 1.5 18.75C1.5 18.3358 1.83579 18 2.25 18H5.8175C6.60132 18 7.32865 17.5921 7.73738 16.9233L8.92254 14.9839L9.18035 14.562Z" fill="#0F0F0F"/>
</g>
</svg>

<svg xmlns="http://www.w3.org/2000/svg" width="24" height="24" viewBox="0 0 24 24">
  <g class="ic-arrows-swap-right">
    <path fill-rule="evenodd" d="M19.28 1.72a.75.75 0 1 0-1.06 1.06l1.72 1.72h-2.508a3.75 3.75 0 0 0-3.2 1.795l-2.607 4.267-2.608-4.267a3.75 3.75 0 0 0-3.2-1.795H2.25a.75.75 0 0 0 0 1.5h3.567a2.25 2.25 0 0 1 1.92 1.077l3.24 5.302.016.026 3.24 5.3a3.75 3.75 0 0 0 3.2 1.795h2.506l-1.72 1.72a.75.75 0 1 0 1.061 1.06l3-3a.75.75 0 0 0 0-1.06l-3-3a.75.75 0 1 0-1.06 1.06L19.94 18h-2.508a2.25 2.25 0 0 1-1.92-1.077L12.505 12l3.009-4.923A2.25 2.25 0 0 1 17.433 6h2.506l-1.72 1.72a.75.75 0 0 0 1.061 1.06l3-3a.75.75 0 0 0 0-1.06l-3-3ZM9.18 14.562a.75.75 0 0 1 1.28.782l-.258.422-1.185 1.94a3.75 3.75 0 0 1-3.2 1.794H2.25a.75.75 0 0 1 0-1.5h3.567a2.25 2.25 0 0 0 1.92-1.077l1.186-1.94.257-.421Z" class="Icon"/>
  </g>
</svg>
